;(test)
;(Program: 1_PAZ_70_CHER)
;(Part: XX.XXX-XXXX.XXX_cam_Skoda.prt)
;(Date: Fri Mar 29 14:26:05 2024 User: DOOMY)
;(Machine: Skoda HCW3)
;(AO KG "SOME COMPANY", 2023)
;(Machine time: 3.85 min)
;(--------------------- TOOL LIST ---------------------)
;(T0 "FREZA_D32_INGERSOLL" D=32 L=150  Cutting time: 49.90 min)
;(------------------- END TOOL LIST -------------------)
 
DEF REAL SAFETY_Z, SAFETY_Y
DEF REAL SHIFT_ANGLE
DEF INT FIRST_TOOTH, END_TOOTH, ALL_TEETH
DEF REAL DELTA_X, DELTA_Z
SAFETY_Z = 0
SAFETY_Y = 4900
SHIFT_ANGLE = 0
R120 = 0
 
N1 G17 G40 G90 G642
N2 OFFN=0
N3 TRAFOOF
N4 CYCLE800()
;**************************
GOTOF N5
;**************************
;
;!!!PROGRAMM MADE FOR IFVW207 HEAD!!!
N5 G0 G153 Z=SAFETY_Z D0
N6 G0 G153 Y=SAFETY_Y D0
N7 G0 G153 X4000
N8 PICKUP(19)
  
N9 MSG ("PAZ_70_CHERN_1")
N10 ;(Operation time: 50.33 min)
N11 ;(Tool: FREZA_D32_INGERSOLL D=32 L=150 R=0)
N12 G54 G17
N13 DIAMOF
N14 G0 G153 Z0 D0
N15 G0 G153 X4000 Y1100
N16 MSG ("Please set tool: FREZA_D32_INGERSOLL !!!!")
N17 T="FREZA_D32_INGERSOLL"
N18 M6
N19 G0 G153 Y=SAFETY_Y D0
;***************
FIRST_TOOTH=1 ;(NACHALNII ELEMENT)
END_TOOTH=60 ;(KONECHNII ELEMENT)
ALL_TEETH=60 ;(CHISLO OBRABATIVAEMIH MEST)
DELTA_X=0.000 ;(SMESCHENIE CENTRA KOLESA OT OSI B PO X)
DELTA_Z=0.000 ;(SMESCHENIE CENTRA KOLESA OT OSI B PO Z)
;***************
METKA1:
SHIFT_ANGLE=(360/ALL_TEETH)*(FIRST_TOOTH-1)
N20 G54 D1
N21 G0 V0
N22 ;ANGLE TOLERANCE: 0.000
N23 PRED_C800
N24 CYCLE800(0,"IFVW207",100000,27,0,0,0,90.000,90.000,0,0,0,0,-1,100,1)
N25 $P_WPFRAME=CTRANS():CROT()
N26 G0 G60 B=DC(0.000+SHIFT_ANGLE)
N27 G642
N28 RECALC_B(0.000,DELTA_X,DELTA_Z,SHIFT_ANGLE)
N29 G0 X5.666 Y3.000
N30 AROT Y=0.000
N31 AROT X=-90.000
N32 S500 M03
N33 M08
N34 G00 G90 X5.666 Y-1188.382 Z3.
N35 Z-.7
N36 CFTCP
N37 G41 G94 G01 X25. Y-1169.474 F1500. M08
N38 Y-1167.394
N39 G03 X2.606 Y-1145. CR=22.4
N40 G01 X-2.606
N41 G03 X-25. Y-1167.394 CR=22.4
N42 G01 Y-1169.474
N43 G40 X-5.666 Y-1188.382
N44 G00 X5.666 Z-1.4
N45 G41 G01 X25. Y-1169.474 F1500.
N46 Y-1167.394
N47 G03 X2.606 Y-1145. CR=22.4
N48 G01 X-2.606
N49 G03 X-25. Y-1167.394 CR=22.4
N50 G01 Y-1169.474
N51 G40 X-5.666 Y-1188.382
N52 G00 X5.666 Z-2.1
N53 G41 G01 X25. Y-1169.474 F1500.
N54 Y-1167.394
N55 G03 X2.606 Y-1145. CR=22.4
N56 G01 X-2.606
N57 G03 X-25. Y-1167.394 CR=22.4
N58 G01 Y-1169.474
N59 G40 X-5.666 Y-1188.382
N60 G00 X5.666 Z-2.8
N61 G41 G01 X25. Y-1169.474 F1500.
N62 Y-1167.394
N63 G03 X2.606 Y-1145. CR=22.4
N64 G01 X-2.606
N65 G03 X-25. Y-1167.394 CR=22.4
N66 G01 Y-1169.474
N67 G40 X-5.666 Y-1188.382
N68 G00 X5.666 Z-3.5
N69 G41 G01 X25. Y-1169.474 F1500.
N70 Y-1167.394
N71 G03 X2.606 Y-1145. CR=22.4
N72 G01 X-2.606
N73 G03 X-25. Y-1167.394 CR=22.4
N74 G01 Y-1169.474
N75 G40 X-5.666 Y-1188.382
N76 G00 X5.666 Z-4.2
N77 G41 G01 X25. Y-1169.474 F1500.
N78 Y-1167.394
N79 G03 X2.606 Y-1145. CR=22.4
N80 G01 X-2.606
N81 G03 X-25. Y-1167.394 CR=22.4
N82 G01 Y-1169.474
N83 G40 X-5.666 Y-1188.382
N84 G00 X5.666 Z-4.9
N85 G41 G01 X25. Y-1169.474 F1500.
N86 Y-1167.394
N87 G03 X2.606 Y-1145. CR=22.4
N88 G01 X-2.606
N89 G03 X-25. Y-1167.394 CR=22.4
N90 G01 Y-1169.474
N91 G40 X-5.666 Y-1188.382
N92 G00 X5.666 Z-5.6
N93 G41 G01 X25. Y-1169.474 F1500.
N94 Y-1167.394
N95 G03 X2.606 Y-1145. CR=22.4
N96 G01 X-2.606
N97 G03 X-25. Y-1167.394 CR=22.4
N98 G01 Y-1169.474
N99 G40 X-5.666 Y-1188.382
N100 G00 X5.666 Z-6.3
N101 G41 G01 X25. Y-1169.474 F1500.
N102 Y-1167.394
N103 G03 X2.606 Y-1145. CR=22.4
N104 G01 X-2.606
N105 G03 X-25. Y-1167.394 CR=22.4
N106 G01 Y-1169.474
N107 G40 X-5.666 Y-1188.382
N108 G00 X5.666 Z-7.
N109 G41 G01 X25. Y-1169.474 F1500.
N110 Y-1167.394
N111 G03 X2.606 Y-1145. CR=22.4
N112 G01 X-2.606
N113 G03 X-25. Y-1167.394 CR=22.4
N114 G01 Y-1169.474
N115 G40 X-5.666 Y-1188.382
N116 G00 X5.666 Z-7.7
N117 G41 G01 X25. Y-1169.474 F1500.
N118 Y-1167.394
N119 G03 X2.606 Y-1145. CR=22.4
N120 G01 X-2.606
N121 G03 X-25. Y-1167.394 CR=22.4
N122 G01 Y-1169.474
N123 G40 X-5.666 Y-1188.382
N124 G00 X5.666 Z-8.4
N125 G41 G01 X25. Y-1169.474 F1500.
N126 Y-1167.394
N127 G03 X2.606 Y-1145. CR=22.4
N128 G01 X-2.606
N129 G03 X-25. Y-1167.394 CR=22.4
N130 G01 Y-1169.474
N131 G40 X-5.666 Y-1188.382
N132 G00 X5.666 Z-9.1
N133 G41 G01 X25. Y-1169.474 F1500.
N134 Y-1167.394
N135 G03 X2.606 Y-1145. CR=22.4
N136 G01 X-2.606
N137 G03 X-25. Y-1167.394 CR=22.4
N138 G01 Y-1169.474
N139 G40 X-5.666 Y-1188.382
N140 G00 X5.666 Z-9.8
N141 G41 G01 X25. Y-1169.474 F1500.
N142 Y-1167.394
N143 G03 X2.606 Y-1145. CR=22.4
N144 G01 X-2.606
N145 G03 X-25. Y-1167.394 CR=22.4
N146 G01 Y-1169.474
N147 G40 X-5.666 Y-1188.382
N148 G00 X5.666 Z-10.5
N149 G41 G01 X25. Y-1169.474 F1500.
N150 Y-1167.394
N151 G03 X2.606 Y-1145. CR=22.4
N152 G01 X-2.606
N153 G03 X-25. Y-1167.394 CR=22.4
N154 G01 Y-1169.474
N155 G40 X-5.666 Y-1188.382
N156 G00 X5.666 Z-11.2
N157 G41 G01 X25. Y-1169.474 F1500.
N158 Y-1167.394
N159 G03 X2.606 Y-1145. CR=22.4
N160 G01 X-2.606
N161 G03 X-25. Y-1167.394 CR=22.4
N162 G01 Y-1169.474
N163 G40 X-5.666 Y-1188.382
N164 G00 X5.666 Z-11.9
N165 G41 G01 X25. Y-1169.474 F1500.
N166 Y-1167.394
N167 G03 X2.606 Y-1145. CR=22.4
N168 G01 X-2.606
N169 G03 X-25. Y-1167.394 CR=22.4
N170 G01 Y-1169.474
N171 G40 X-5.666 Y-1188.382
N172 G00 X5.666 Z-12.3
N173 G41 G01 X25. Y-1169.474 F1500.
N174 Y-1167.394
N175 G03 X2.606 Y-1145. CR=22.4
N176 G01 X-2.606
N177 G03 X-25. Y-1167.394 CR=22.4
N178 G01 Y-1169.474
N179 G40 X-5.666 Y-1188.382
N180 G00 Z3.
N181 ROT
N182 TRANS
N183 TRAFOOF
N184 CYCLE800
N185 CFC
N186 G0 G153 Z=SAFETY_Z D0
N187 FIRST_TOOTH=FIRST_TOOTH+1
N188 IF FIRST_TOOTH < (END_TOOTH+1)
N189 TRAFOOF
N190 GOTOB METKA1
N191 ENDIF
N192 SHIFT_ANGLE=0
N193 ROT
N194 M01
  
N195 MSG ("PAZ_70_CHERN_2")
N196 ;(Operation time: 1.11 min)
N197 ;(Tool: FREZA_D32_INGERSOLL D=32 L=150 R=0)
N198 G54 G17
N199 DIAMOF
N200 MSG ("Please set tool: FREZA_D32_INGERSOLL !!!!")
N201 T="FREZA_D32_INGERSOLL"
N202 M6
N203 G0 G153 Y=SAFETY_Y D0
N204 G54 D1
N205 G0 V0
N206 ;ANGLE TOLERANCE: 0.000
N207 PRED_C800
N208 CYCLE800(0,"IFVW207",100000,27,0,0,0,90.000,90.000,0,0,0,0,-1,100,1)
N209 $P_WPFRAME=CTRANS():CROT()
N210 G0 G60 B=DC(0.000)
N211 G642
N212 RECALC_B(0.000,0,0,SHIFT_ANGLE)
N213 G0 X15.166 Y-0.700
N214 AROT Y=0.000
N215 AROT X=-90.000
N216 S500 M03
N217 M08
N218 G00 X15.166 Y-1188.382 Z-.7
N219 CFTCP
N220 G41 G94 G01 X34.5 Y-1169.474 F1500. M08
N221 Y-1167.394
N222 G03 X12.106 Y-1145. CR=22.4
N223 G01 X-12.106
N224 G03 X-34.5 Y-1167.394 CR=22.4
N225 G01 Y-1169.474
N226 G40 X-15.166 Y-1188.382
N227 G00 X15.166 Z-1.4
N228 G41 G01 X34.5 Y-1169.474 F1500.
N229 Y-1167.394
N230 G03 X12.106 Y-1145. CR=22.4
N231 G01 X-12.106
N232 G03 X-34.5 Y-1167.394 CR=22.4
N233 G01 Y-1169.474
N234 G40 X-15.166 Y-1188.382
N235 G00 X15.166 Z-2.1
N236 G41 G01 X34.5 Y-1169.474 F1500.
N237 Y-1167.394
N238 G03 X12.106 Y-1145. CR=22.4
N239 G01 X-12.106
N240 G03 X-34.5 Y-1167.394 CR=22.4
N241 G01 Y-1169.474
N242 G40 X-15.166 Y-1188.382
N243 G00 X15.166 Z-2.8
N244 G41 G01 X34.5 Y-1169.474 F1500.
N245 Y-1167.394
N246 G03 X12.106 Y-1145. CR=22.4
N247 G01 X-12.106
N248 G03 X-34.5 Y-1167.394 CR=22.4
N249 G01 Y-1169.474
N250 G40 X-15.166 Y-1188.382
N251 G00 X15.166 Z-3.5
N252 G41 G01 X34.5 Y-1169.474 F1500.
N253 Y-1167.394
N254 G03 X12.106 Y-1145. CR=22.4
N255 G01 X-12.106
N256 G03 X-34.5 Y-1167.394 CR=22.4
N257 G01 Y-1169.474
N258 G40 X-15.166 Y-1188.382
N259 G00 X15.166 Z-4.2
N260 G41 G01 X34.5 Y-1169.474 F1500.
N261 Y-1167.394
N262 G03 X12.106 Y-1145. CR=22.4
N263 G01 X-12.106
N264 G03 X-34.5 Y-1167.394 CR=22.4
N265 G01 Y-1169.474
N266 G40 X-15.166 Y-1188.382
N267 G00 X15.166 Z-4.9
N268 G41 G01 X34.5 Y-1169.474 F1500.
N269 Y-1167.394
N270 G03 X12.106 Y-1145. CR=22.4
N271 G01 X-12.106
N272 G03 X-34.5 Y-1167.394 CR=22.4
N273 G01 Y-1169.474
N274 G40 X-15.166 Y-1188.382
N275 G00 X15.166 Z-5.6
N276 G41 G01 X34.5 Y-1169.474 F1500.
N277 Y-1167.394
N278 G03 X12.106 Y-1145. CR=22.4
N279 G01 X-12.106
N280 G03 X-34.5 Y-1167.394 CR=22.4
N281 G01 Y-1169.474
N282 G40 X-15.166 Y-1188.382
N283 G00 X15.166 Z-6.3
N284 G41 G01 X34.5 Y-1169.474 F1500.
N285 Y-1167.394
N286 G03 X12.106 Y-1145. CR=22.4
N287 G01 X-12.106
N288 G03 X-34.5 Y-1167.394 CR=22.4
N289 G01 Y-1169.474
N290 G40 X-15.166 Y-1188.382
N291 G00 X15.166 Z-7.
N292 G41 G01 X34.5 Y-1169.474 F1500.
N293 Y-1167.394
N294 G03 X12.106 Y-1145. CR=22.4
N295 G01 X-12.106
N296 G03 X-34.5 Y-1167.394 CR=22.4
N297 G01 Y-1169.474
N298 G40 X-15.166 Y-1188.382
N299 G00 X15.166 Z-7.7
N300 G41 G01 X34.5 Y-1169.474 F1500.
N301 Y-1167.394
N302 G03 X12.106 Y-1145. CR=22.4
N303 G01 X-12.106
N304 G03 X-34.5 Y-1167.394 CR=22.4
N305 G01 Y-1169.474
N306 G40 X-15.166 Y-1188.382
N307 G00 X15.166 Z-8.4
N308 G41 G01 X34.5 Y-1169.474 F1500.
N309 Y-1167.394
N310 G03 X12.106 Y-1145. CR=22.4
N311 G01 X-12.106
N312 G03 X-34.5 Y-1167.394 CR=22.4
N313 G01 Y-1169.474
N314 G40 X-15.166 Y-1188.382
N315 G00 X15.166 Z-9.1
N316 G41 G01 X34.5 Y-1169.474 F1500.
N317 Y-1167.394
N318 G03 X12.106 Y-1145. CR=22.4
N319 G01 X-12.106
N320 G03 X-34.5 Y-1167.394 CR=22.4
N321 G01 Y-1169.474
N322 G40 X-15.166 Y-1188.382
N323 G00 X15.166 Z-9.8
N324 G41 G01 X34.5 Y-1169.474 F1500.
N325 Y-1167.394
N326 G03 X12.106 Y-1145. CR=22.4
N327 G01 X-12.106
N328 G03 X-34.5 Y-1167.394 CR=22.4
N329 G01 Y-1169.474
N330 G40 X-15.166 Y-1188.382
N331 G00 X15.166 Z-10.5
N332 G41 G01 X34.5 Y-1169.474 F1500.
N333 Y-1167.394
N334 G03 X12.106 Y-1145. CR=22.4
N335 G01 X-12.106
N336 G03 X-34.5 Y-1167.394 CR=22.4
N337 G01 Y-1169.474
N338 G40 X-15.166 Y-1188.382
N339 G00 X15.166 Z-11.2
N340 G41 G01 X34.5 Y-1169.474 F1500.
N341 Y-1167.394
N342 G03 X12.106 Y-1145. CR=22.4
N343 G01 X-12.106
N344 G03 X-34.5 Y-1167.394 CR=22.4
N345 G01 Y-1169.474
N346 G40 X-15.166 Y-1188.382
N347 G00 X15.166 Z-11.9
N348 G41 G01 X34.5 Y-1169.474 F1500.
N349 Y-1167.394
N350 G03 X12.106 Y-1145. CR=22.4
N351 G01 X-12.106
N352 G03 X-34.5 Y-1167.394 CR=22.4
N353 G01 Y-1169.474
N354 G40 X-15.166 Y-1188.382
N355 G00 X15.166 Z-12.3
N356 G41 G01 X34.5 Y-1169.474 F1500.
N357 Y-1167.394
N358 G03 X12.106 Y-1145. CR=22.4
N359 G01 X-12.106
N360 G03 X-34.5 Y-1167.394 CR=22.4
N361 G01 Y-1169.474
N362 G40 X-15.166 Y-1188.382
N363 G00 Z100.
N364 ROT
N365 TRANS
N366 TRAFOOF
N367 CYCLE800
N368 CFC
N369 G0 G153 Z=SAFETY_Z D0
N370 G0 G153 Y=SAFETY_Y D0
N371 M09
N372 M05
N373 M30
%
Program: 1_PAZ_70_CHER)
;(Part: XX.XXX-XXXX.XXX_cam_Skoda.prt)
;(Date: Fri Mar 29 14:26:05 2024 User: Khramov_PA)
;(--------------------- TOOL LIST ---------------------)
;(T0 "FREZA_D32_INGERSOLL" D=32 L=150 Cutting time: 49.90 min)
;(------------------- END TOOL LIST -------------------)
N5 DEF REAL SAFETY_Z, SAFETY_Y
N10 DEF REAL SHIFT_ANGLE
N15 DEF INT FIRST_TOOTH, END_TOOTH, ALL_TEETH
N20 SAFETY_Z = 0
N25 SAFETY_Y = 4900
N30 SHIFT_ANGLE = 0
N35 R120 = 0
N40 G17 G40 G90 G642
N45 OFFN=0
N50 TRAFOOF
N55 CYCLE800()
;!!!PROGRAMM MADE FOR IFVW207 HEAD!!!
N60 G0 G153 Z=SAFETY_Z D0
N65 G0 G153 Y=SAFETY_Y D0
N70 PICKUP(19)
N75 MSG ("PAZ_70_CHERN_1")
N80 G54 G17
N85 DIAMOF
N90 G0 G153 Z0 D0
N95 T="FREZA_D32_INGERSOLL"
N100 M6
N105 G0 G153 Y=SAFETY_Y D0
N110 FIRST_TOOTH=1 ;(NACHALNII ELEMENT)
N115 END_TOOTH=60 ;(KONECHNII ELEMENT)
N120 ALL_TEETH=60 ;(CHISLO OBRABATIVAEMIH MEST)
METKA1:
N125 SHIFT_ANGLE=(360/ALL_TEETH)*(FIRST_TOOTH-1)
N130 G54 D1
N135 G0 V0
N140 CYCLE800(0,"IFVW207",100000,27,0,0,0,90.000,90.000,0,0,0,0,-1,100,1)
N145 $P_WPFRAME=CTRANS():CROT()
N150 G0 G60 B=DC(0.000+SHIFT_ANGLE)
N155 G642
N160 G0 X5.666 Y3.000
N165 AROT Y=0.000
N170 AROT X=-90.000
N175 S500 M03
N180 M08
N185 G00 G90 X5.666 Y-1188.382 Z3.
N190 Z-.7
N195 CFTCP
N200 G41 G94 G01 X25. Y-1169.474 F1500. M08
N205 Y-1167.394
N210 G03 X2.606 Y-1145. CR=22.4
N215 G01 X-2.606
N220 G03 X-25. Y-1167.394 CR=22.4
N225 G01 Y-1169.474
N230 G40 X-5.666 Y-1188.382
N235 G00 X5.666 Z-1.4
N240 G41 G01 X25. Y-1169.474 F1500.
N245 Y-1167.394
N250 G03 X2.606 Y-1145. CR=22.4
N255 G01 X-2.606
N260 G03 X-25. Y-1167.394 CR=22.4
N265 G01 Y-1169.474
N270 G40 X-5.666 Y-1188.382
N275 G00 X5.666 Z-2.1
N280 G41 G01 X25. Y-1169.474 F1500.
N285 Y-1167.394
N290 G03 X2.606 Y-1145. CR=22.4
N295 G01 X-2.606
N300 G03 X-25. Y-1167.394 CR=22.4
N305 G01 Y-1169.474
N310 G40 X-5.666 Y-1188.382
N315 G00 X5.666 Z-2.8
N320 G41 G01 X25. Y-1169.474 F1500.
N325 Y-1167.394
N330 G03 X2.606 Y-1145. CR=22.4
N335 G01 X-2.606
N340 G03 X-25. Y-1167.394 CR=22.4
N345 G01 Y-1169.474
N350 G40 X-5.666 Y-1188.382
N355 G00 X5.666 Z-3.5
N360 G41 G01 X25. Y-1169.474 F1500.
N365 Y-1167.394
N370 G03 X2.606 Y-1145. CR=22.4
N375 G01 X-2.606
N380 G03 X-25. Y-1167.394 CR=22.4
N385 G01 Y-1169.474
N390 G40 X-5.666 Y-1188.382
N395 G00 X5.666 Z-4.2
N400 G41 G01 X25. Y-1169.474 F1500.
N405 Y-1167.394
N410 G03 X2.606 Y-1145. CR=22.4
N415 G01 X-2.606
N420 G03 X-25. Y-1167.394 CR=22.4
N425 G01 Y-1169.474
N430 G40 X-5.666 Y-1188.382
N435 G00 X5.666 Z-4.9
N440 G41 G01 X25. Y-1169.474 F1500.
N445 Y-1167.394
N450 G03 X2.606 Y-1145. CR=22.4
N455 G01 X-2.606
N460 G03 X-25. Y-1167.394 CR=22.4
N465 G01 Y-1169.474
N470 G40 X-5.666 Y-1188.382
N475 G00 X5.666 Z-5.6
N480 G41 G01 X25. Y-1169.474 F1500.
N485 Y-1167.394
N490 G03 X2.606 Y-1145. CR=22.4
N495 G01 X-2.606
N500 G03 X-25. Y-1167.394 CR=22.4
N505 G01 Y-1169.474
N510 G40 X-5.666 Y-1188.382
N515 G00 X5.666 Z-6.3
N520 G41 G01 X25. Y-1169.474 F1500.
N525 Y-1167.394
N530 G03 X2.606 Y-1145. CR=22.4
N535 G01 X-2.606
N540 G03 X-25. Y-1167.394 CR=22.4
N545 G01 Y-1169.474
N550 G40 X-5.666 Y-1188.382
N555 G00 X5.666 Z-7.
N560 G41 G01 X25. Y-1169.474 F1500.
N565 Y-1167.394
N570 G03 X2.606 Y-1145. CR=22.4
N575 G01 X-2.606
N580 G03 X-25. Y-1167.394 CR=22.4
N585 G01 Y-1169.474
N590 G40 X-5.666 Y-1188.382
N595 G00 X5.666 Z-7.7
N600 G41 G01 X25. Y-1169.474 F1500.
N605 Y-1167.394
N610 G03 X2.606 Y-1145. CR=22.4
N615 G01 X-2.606
N620 G03 X-25. Y-1167.394 CR=22.4
N625 G01 Y-1169.474
N630 G40 X-5.666 Y-1188.382
N635 G00 X5.666 Z-8.4
N640 G41 G01 X25. Y-1169.474 F1500.
N645 Y-1167.394
N650 G03 X2.606 Y-1145. CR=22.4
N655 G01 X-2.606
N660 G03 X-25. Y-1167.394 CR=22.4
N665 G01 Y-1169.474
N670 G40 X-5.666 Y-1188.382
N675 G00 X5.666 Z-9.1
N680 G41 G01 X25. Y-1169.474 F1500.
N685 Y-1167.394
N690 G03 X2.606 Y-1145. CR=22.4
N695 G01 X-2.606
N700 G03 X-25. Y-1167.394 CR=22.4
N705 G01 Y-1169.474
N710 G40 X-5.666 Y-1188.382
N715 G00 X5.666 Z-9.8
N720 G41 G01 X25. Y-1169.474 F1500.
N725 Y-1167.394
N730 G03 X2.606 Y-1145. CR=22.4
N735 G01 X-2.606
N740 G03 X-25. Y-1167.394 CR=22.4
N745 G01 Y-1169.474
N750 G40 X-5.666 Y-1188.382
N755 G00 X5.666 Z-10.5
N760 G41 G01 X25. Y-1169.474 F1500.
N765 Y-1167.394
N770 G03 X2.606 Y-1145. CR=22.4
N775 G01 X-2.606
N780 G03 X-25. Y-1167.394 CR=22.4
N785 G01 Y-1169.474
N790 G40 X-5.666 Y-1188.382
N795 G00 X5.666 Z-11.2
N800 G41 G01 X25. Y-1169.474 F1500.
N805 Y-1167.394
N810 G03 X2.606 Y-1145. CR=22.4
N815 G01 X-2.606
N820 G03 X-25. Y-1167.394 CR=22.4
N825 G01 Y-1169.474
N830 G40 X-5.666 Y-1188.382
N835 G00 X5.666 Z-11.9
N840 G41 G01 X25. Y-1169.474 F1500.
N845 Y-1167.394
N850 G03 X2.606 Y-1145. CR=22.4
N855 G01 X-2.606
N860 G03 X-25. Y-1167.394 CR=22.4
N865 G01 Y-1169.474
N870 G40 X-5.666 Y-1188.382
N875 G00 X5.666 Z-12.3
N880 G41 G01 X25. Y-1169.474 F1500.
N885 Y-1167.394
N890 G03 X2.606 Y-1145. CR=22.4
N895 G01 X-2.606
N900 G03 X-25. Y-1167.394 CR=22.4
N905 G01 Y-1169.474
N910 G40 X-5.666 Y-1188.382
N915 G00 Z3.
N920 ROT
N925 TRANS
N930 TRAFOOF
N935 CYCLE800
N940 CFC
N945 G0 G153 Z=SAFETY_Z D0
N950 FIRST_TOOTH=FIRST_TOOTH+1
N955 IF FIRST_TOOTH < (END_TOOTH+1)
N960 TRAFOOF
N965 GOTOB METKA1
N970 ENDIF
N975 SHIFT_ANGLE=0
N980 ROT
N985 M01
N990 MSG ("PAZ_70_CHERN_2")
N995 G54 G17
N1000 DIAMOF
N1005 T="FREZA_D32_INGERSOLL"
N1010 M6
N1015 G0 G153 Y=SAFETY_Y D0
N1020 G54 D1
N1025 G0 V0
N1030 CYCLE800(0,"IFVW207",100000,27,0,0,0,90.000,90.000,0,0,0,0,-1,100,1)
N1035 $P_WPFRAME=CTRANS():CROT()
N1040 G0 G60 B=DC(0.000)
N1045 G642
N1050 G0 X15.166 Y-0.700
N1055 AROT Y=0.000
N1060 AROT X=-90.000
N1065 S500 M03
N1070 M08
N1075 G00 X15.166 Y-1188.382 Z-.7
N1080 CFTCP
N1085 G41 G94 G01 X34.5 Y-1169.474 F1500. M08
N1090 Y-1167.394
N1095 G03 X12.106 Y-1145. CR=22.4
N1100 G01 X-12.106
N1105 G03 X-34.5 Y-1167.394 CR=22.4
N1110 G01 Y-1169.474
N1115 G40 X-15.166 Y-1188.382
N1120 G00 X15.166 Z-1.4
N1125 G41 G01 X34.5 Y-1169.474 F1500.
N1130 Y-1167.394
N1135 G03 X12.106 Y-1145. CR=22.4
N1140 G01 X-12.106
N1145 G03 X-34.5 Y-1167.394 CR=22.4
N1150 G01 Y-1169.474
N1155 G40 X-15.166 Y-1188.382
N1160 G00 X15.166 Z-2.1
N1165 G41 G01 X34.5 Y-1169.474 F1500.
N1170 Y-1167.394
N1175 G03 X12.106 Y-1145. CR=22.4
N1180 G01 X-12.106
N1185 G03 X-34.5 Y-1167.394 CR=22.4
N1190 G01 Y-1169.474
N1195 G40 X-15.166 Y-1188.382
N1200 G00 X15.166 Z-2.8
N1205 G41 G01 X34.5 Y-1169.474 F1500.
N1210 Y-1167.394
N1215 G03 X12.106 Y-1145. CR=22.4
N1220 G01 X-12.106
N1225 G03 X-34.5 Y-1167.394 CR=22.4
N1230 G01 Y-1169.474
N1235 G40 X-15.166 Y-1188.382
N1240 G00 X15.166 Z-3.5
N1245 G41 G01 X34.5 Y-1169.474 F1500.
N1250 Y-1167.394
N1255 G03 X12.106 Y-1145. CR=22.4
N1260 G01 X-12.106
N1265 G03 X-34.5 Y-1167.394 CR=22.4
N1270 G01 Y-1169.474
N1275 G40 X-15.166 Y-1188.382
N1280 G00 X15.166 Z-4.2
N1285 G41 G01 X34.5 Y-1169.474 F1500.
N1290 Y-1167.394
N1295 G03 X12.106 Y-1145. CR=22.4
N1300 G01 X-12.106
N1305 G03 X-34.5 Y-1167.394 CR=22.4
N1310 G01 Y-1169.474
N1315 G40 X-15.166 Y-1188.382
N1320 G00 X15.166 Z-4.9
N1325 G41 G01 X34.5 Y-1169.474 F1500.
N1330 Y-1167.394
N1335 G03 X12.106 Y-1145. CR=22.4
N1340 G01 X-12.106
N1345 G03 X-34.5 Y-1167.394 CR=22.4
N1350 G01 Y-1169.474
N1355 G40 X-15.166 Y-1188.382
N1360 G00 X15.166 Z-5.6
N1365 G41 G01 X34.5 Y-1169.474 F1500.
N1370 Y-1167.394
N1375 G03 X12.106 Y-1145. CR=22.4
N1380 G01 X-12.106
N1385 G03 X-34.5 Y-1167.394 CR=22.4
N1390 G01 Y-1169.474
N1395 G40 X-15.166 Y-1188.382
N1400 G00 X15.166 Z-6.3
N1405 G41 G01 X34.5 Y-1169.474 F1500.
N1410 Y-1167.394
N1415 G03 X12.106 Y-1145. CR=22.4
N1420 G01 X-12.106
N1425 G03 X-34.5 Y-1167.394 CR=22.4
N1430 G01 Y-1169.474
N1435 G40 X-15.166 Y-1188.382
N1440 G00 X15.166 Z-7.
N1445 G41 G01 X34.5 Y-1169.474 F1500.
N1450 Y-1167.394
N1455 G03 X12.106 Y-1145. CR=22.4
N1460 G01 X-12.106
N1465 G03 X-34.5 Y-1167.394 CR=22.4
N1470 G01 Y-1169.474
N1475 G40 X-15.166 Y-1188.382
N1480 G00 X15.166 Z-7.7
N1485 G41 G01 X34.5 Y-1169.474 F1500.
N1490 Y-1167.394
N1495 G03 X12.106 Y-1145. CR=22.4
N1500 G01 X-12.106
N1505 G03 X-34.5 Y-1167.394 CR=22.4
N1510 G01 Y-1169.474
N1515 G40 X-15.166 Y-1188.382
N1520 G00 X15.166 Z-8.4
N1525 G41 G01 X34.5 Y-1169.474 F1500.
N1530 Y-1167.394
N1535 G03 X12.106 Y-1145. CR=22.4
N1540 G01 X-12.106
N1545 G03 X-34.5 Y-1167.394 CR=22.4
N1550 G01 Y-1169.474
N1555 G40 X-15.166 Y-1188.382
N1560 G00 X15.166 Z-9.1
N1565 G41 G01 X34.5 Y-1169.474 F1500.
N1570 Y-1167.394
N1575 G03 X12.106 Y-1145. CR=22.4
N1580 G01 X-12.106
N1585 G03 X-34.5 Y-1167.394 CR=22.4
N1590 G01 Y-1169.474
N1595 G40 X-15.166 Y-1188.382
N1600 G00 X15.166 Z-9.8
N1605 G41 G01 X34.5 Y-1169.474 F1500.
N1610 Y-1167.394
N1615 G03 X12.106 Y-1145. CR=22.4
N1620 G01 X-12.106
N1625 G03 X-34.5 Y-1167.394 CR=22.4
N1630 G01 Y-1169.474
N1635 G40 X-15.166 Y-1188.382
N1640 G00 X15.166 Z-10.5
N1645 G41 G01 X34.5 Y-1169.474 F1500.
N1650 Y-1167.394
N1655 G03 X12.106 Y-1145. CR=22.4
N1660 G01 X-12.106
N1665 G03 X-34.5 Y-1167.394 CR=22.4
N1670 G01 Y-1169.474
N1675 G40 X-15.166 Y-1188.382
N1680 G00 X15.166 Z-11.2
N1685 G41 G01 X34.5 Y-1169.474 F1500.
N1690 Y-1167.394
N1695 G03 X12.106 Y-1145. CR=22.4
N1700 G01 X-12.106
N1705 G03 X-34.5 Y-1167.394 CR=22.4
N1710 G01 Y-1169.474
N1715 G40 X-15.166 Y-1188.382
N1720 G00 X15.166 Z-11.9
N1725 G41 G01 X34.5 Y-1169.474 F1500.
N1730 Y-1167.394
N1735 G03 X12.106 Y-1145. CR=22.4
N1740 G01 X-12.106
N1745 G03 X-34.5 Y-1167.394 CR=22.4
N1750 G01 Y-1169.474
N1755 G40 X-15.166 Y-1188.382
N1760 G00 X15.166 Z-12.3
N1765 G41 G01 X34.5 Y-1169.474 F1500.
N1770 Y-1167.394
N1775 G03 X12.106 Y-1145. CR=22.4
N1780 G01 X-12.106
N1785 G03 X-34.5 Y-1167.394 CR=22.4
N1790 G01 Y-1169.474
N1795 G40 X-15.166 Y-1188.382
N1800 G00 Z100.
N1805 ROT
N1810 TRANS
N1815 TRAFOOF
N1820 CYCLE800
N1825 CFC
N1830 G0 G153 Z=SAFETY_Z D0
N1835 G0 G153 Y=SAFETY_Y D0
N1840 M09
N1845 M05
N1850 M30
%
